X:162
T:New Drops of Brandy. JC.161
R:Slip Jig
S:John Clare,Poet,Helpstone (1793-1864)
O:England
A:Northamptonshire
Z:vmp.P. Headford
M:9/8
L:1/8
Q:3/8=120
K:G
d2c BGB BGB|\
d2c BGB cBA|d2c BGB BGB|cBc ” crot”A3 cBA:|!
|:G2g gdB gdB|G2g gdB cBA|G2g gdB gdB|cBc A2B cBA:|

